X:1
T:Title
%%score { ( 1 3 4 ) | 2 }
L:1/8
M:4/4
K:C
V:1 treble nm="Grand Piano"
V:3 treble 
V:4 treble 
V:2 bass 
V:1
 z4 z2[Q:1/4=100] [EG]2 | [Ec]2 [Ec]>[Ec] [Ec]2 [GB]>[FA] | [EG]2 [CE]2 [EG]2 [EG]2 | %3
 B2 B>c d2 [Gd]>[Gd] |[M:9/8] [Gc]2 d- d e2- e [EG]2 |[M:4/4] [Ec]2 [Ec]>[Ec] [Ec]2 [GB]>[FA] | %6
 [EG]2 [G,CE]2 [CEG]2 [DFG]2 | [CEA]2 [CEA]>[CEA] [A,^FA]2 [Fd]>[Fc] |[M:7/8] [GB]2 [^FA]2 G3 | %9
[M:1/4] G2 |[M:4/4] G6 z2 | z d3- d z z2 | G6 .G2 | z e3- e z z2 | fe d>c BA G>F | E2 F2 G2 G2 | %16
 A2 A>A G2 c>d |[M:7/8] e2 [Fd]2 [Ec]3 |] %18
V:2
 z4 z2 [C,C]2 | [C,G,]2 [C,G,]>[C,G,] [C,G,]2 [C,C]>[C,C] | [C,C]2 [C,G,]2 [C,C]2 [C,C]2 | %3
 [G,DG]2 [G,DG]>[G,CG] [G,B,G]2[K:bass] [F,B,]>[F,B,] | %4
[M:9/8] [E,C]2[K:treble] [G,B,G]- [G,B,G] [CG]2- [CG][K:bass] [C,C]2 | %5
[M:4/4] [C,C]2 [C,G,]>[C,G,] [C,G,]2 [C,C]>[C,C] | [C,C]2 C,2 C,2 B,,2 | %7
 A,,2 A,,>A,, D,2 [D,A,]>[D,D] |[M:7/8] [D,D]2 [D,C]2 [G,B,]3 |[M:1/4][K:treble] [G,B,F]2 | %10
[M:4/4] [G,B,F]2 [G,B,]>[G,B,] [G,B,][G,B,] [G,B,F]2 | %11
 [G,DF]2[K:bass] [G,B,]>[G,B,] [G,B,][F,B,]E,D, | [C,C]2 [C,C]>[C,C] [C,C][C,C] [C,C]2 | %13
 [C,G,]2 [C,C]>[C,C] [C,C][C,C][K:treble] c2 | dc B>A GF E>D | C2 D2 E2[K:bass] [E,C]2 | %16
 [F,CF]2 [F,CF]>[F,CF] [G,CE]2[K:treble] [G,CE]>[G,B,F] | %17
[M:7/8] [G,CG]2[K:bass] [G,,G,]2 [C,G,]3 |] %18
V:3
 x8 | x8 | x8 | x8 |[M:9/8] x9 |[M:4/4] x8 | x8 | x8 |[M:7/8] x7 |[M:1/4] x2 |[M:4/4] z2 F>F FFGG | %11
 .B2 F>F FF [B,FG]2 | E2 E>E EEE-[EG] | .c2 G>G GG e2 | x8 | x8 | x8 |[M:7/8] x7 |] %18
V:4
 x8 | x8 | x8 | x8 |[M:9/8] x9 |[M:4/4] x8 | x8 | x8 |[M:7/8] x7 |[M:1/4] x2 |[M:4/4] x8 | x8 | %12
 x8 | E2 z2 z4 | x8 | x8 | x8 |[M:7/8] x7 |] %18

